packages/icons/svg/Fill/sun.svg

<svg width="24" height="24" viewBox="0 0 24 24" fill="none" xmlns="http://www.w3.org/2000/svg">
<g id="Icon/Fill/sun">
<path id="Mask" fill-rule="evenodd" clip-rule="evenodd" d="M12 6C12.552 6 13 5.553 13 5V3C13 2.447 12.552 2 12 2C11.448 2 11 2.447 11 3V5C11 5.553 11.448 6 12 6ZM21 11H19C18.448 11 18 11.447 18 12C18 12.553 18.448 13 19 13H21C21.552 13 22 12.553 22 12C22 11.447 21.552 11 21 11ZM5 11C5.552 11 6 11.447 6 12C6 12.553 5.552 13 5 13H3C2.448 13 2 12.553 2 12C2 11.447 2.448 11 3 11H5ZM6.2207 5.0283C5.8237 4.6453 5.1907 4.6573 4.8067 5.0533C4.4227 5.4503 4.4337 6.0843 4.8307 6.4673L6.2697 7.8573C6.4647 8.0453 6.7147 8.1373 6.9647 8.1373C7.2267 8.1373 7.4877 8.0353 7.6837 7.8323C8.0677 7.4353 8.0567 6.8013 7.6597 6.4183L6.2207 5.0283ZM17.7302 7.8577C17.5352 8.0447 17.2852 8.1377 17.0352 8.1377C16.7732 8.1377 16.5122 8.0347 16.3162 7.8317C15.9322 7.4357 15.9432 6.8017 16.3402 6.4177L17.7792 5.0287C18.1782 4.6457 18.8102 4.6577 19.1932 5.0537C19.5772 5.4497 19.5662 6.0837 19.1692 6.4677L17.7302 7.8577ZM12 18C11.448 18 11 18.447 11 19V21C11 21.553 11.448 22 12 22C12.552 22 13 21.553 13 21V19C13 18.447 12.552 18 12 18ZM16.316 16.1676C16.7 15.7716 17.333 15.7596 17.73 16.1426L19.169 17.5326C19.566 17.9156 19.577 18.5496 19.193 18.9466C18.997 19.1496 18.736 19.2516 18.474 19.2516C18.224 19.2516 17.974 19.1596 17.779 18.9716L16.34 17.5816C15.943 17.1986 15.932 16.5646 16.316 16.1676ZM6.27 16.1426L4.831 17.5326C4.434 17.9156 4.423 18.5496 4.807 18.9466C5.003 19.1496 5.264 19.2516 5.526 19.2516C5.776 19.2516 6.026 19.1596 6.221 18.9716L7.66 17.5816C8.057 17.1986 8.068 16.5646 7.684 16.1676C7.301 15.7716 6.668 15.7596 6.27 16.1426ZM8 12C8 9.794 9.794 8 12 8C14.206 8 16 9.794 16 12C16 14.206 14.206 16 12 16C9.794 16 8 14.206 8 12Z" fill="#000000"/>
</g>
</svg>

<svg fill="none" height="24" viewBox="0 0 24 24" width="24" xmlns="http://www.w3.org/2000/svg"><path clip-rule="evenodd" d="m12 6c.552 0 1-.447 1-1v-2c0-.553-.448-1-1-1s-1 .447-1 1v2c0 .553.448 1 1 1zm9 5h-2c-.552 0-1 .447-1 1s.448 1 1 1h2c.552 0 1-.447 1-1s-.448-1-1-1zm-15.99998 0c.552 0 1 .447 1 1s-.448 1-1 1h-2c-.552 0-1-.447-1-1s.448-1 1-1zm1.2207-5.9717c-.397-.383-1.03-.371-1.414.025-.384.397-.373 1.031.024 1.414l1.439 1.39c.195.188.445.28.695.28.262 0 .523-.102.719-.305.384-.397.373-1.031-.024-1.414zm11.50948 2.82943c-.195.187-.445.28-.695.28-.262 0-.523-.103-.719-.306-.384-.396-.373-1.03.024-1.414l1.439-1.389c.399-.383 1.031-.371 1.414.025.384.396.373 1.03-.024 1.414zm-5.7302 10.14217c-.552 0-1 .447-1 1v2c0 .553.448 1 1 1s1-.447 1-1v-2c0-.553-.448-1-1-1zm4.316-1.8323c.384-.396 1.017-.408 1.414-.025l1.439 1.39c.397.383.408 1.017.024 1.414-.196.203-.457.305-.719.305-.25 0-.5-.092-.695-.28l-1.439-1.39c-.397-.383-.408-1.017-.024-1.414zm-10.04597-.025-1.439 1.39c-.397.383-.408 1.017-.024 1.414.196.203.457.305.719.305.25 0 .5-.092.695-.28l1.439-1.39c.397-.383.408-1.017.024-1.414-.383-.396-1.016-.408-1.414-.025zm1.72999-4.1426c0-2.206 1.79399-4 3.99998-4 2.206 0 4 1.794 4 4s-1.794 4-4 4c-2.20599 0-3.99998-1.794-3.99998-4z" fill="#6b7280" fill-rule="evenodd"/></svg>
